!!!COM: cole-porter---ella-fitzgerald
!!!OTL: so-in-love
!!!RNB: hooktheoryid: qveoYZrGmdn
**kern	**text
*clefG2	*
*k[b-e-a-]	*
*M4/4	*
=1	=1
1r	.
=2	=2
2g	Cm
[2a-	.
=3	=3
2.a-]	.
4g	.
=4	=4
2g	G7/D
[2a-	.
=5	=5
2.a-]	G7
4g	.
=6	=6
2g	Cm
[2dd	.
=7	=7
2.dd]	.
4cc	.
=8	=8
2cc	Fm
2gg	.
=9	=9
2.gg	Fm
4ff	.
=10	=10
1ff	Bb
=11	=11
2.aa-	Bb7
4gg	.
=12	=12
[1gg	Eb
=13	=13
2gg]	Eb7
4ff	.
8r	.
8ee-	.
=14	=14
2.ff	Ab
8r	.
8ee-	.
=15	=15
[2ee-L	D7/A
4ee-]J	D7
8r	.
[8dd	.
=16	=16
16dd]	G
2..dd	.
16dd	.
=17	=17
1r	G7
*-	*-